X:1
T:Title
%%score 1 2 3 4
L:1/8
Q:1/4=80
M:4/4
K:C
V:1 treble nm="Church Organ, Soprano"
V:2 treble nm="French Horn, Alto"
V:3 bass nm="Trombone, Tenor"
V:4 bass nm="Tuba, Bass"
V:1
 DGAB A2 GF | EF D2 AB^cd | B2 GA- A2 A2 | AB^cd B2 GF | EF D2 DGAB | B2 AG- G2 G2 |] %6
w: By~English~Traditional * * * * * *||||||
V:2
 B,B,CD E2 DD- | DD D2 DDED | D2 B,D- D^CDE | FGED D2 E^C- | C^C D2 DB,=CD | D2 DD CA, B,2 |] %6
w: Oh,~ who~ * would~ be~ a~ shep|* herd~ boy,~ And~ mind~ * a~|flock~ of~ sheep,~ * * * *|While~ o * ther~ men~ and~ boys~|* en joy~ A~ qui * et~|night~ of~ sleep.~ * * *|
V:3
 B, G,2 F, E,F,G,A, | G,A,F,G, A, G,2 A, | G,2 G,G, F,E,F,G, | A, G,2 A, B,2 B,A,- | %4
 A,A,F,G, A, G,2 G, | G,E,F,G,- G,2 G,2 |] %6
V:4
 G, E,2 D, C,2 B,,D,- | D,D,D,E, F, G,2 F, | G,B,,E,D,- D,2 D,2 | D, G,2 F, G,F,E,A,,- | %4
 A,,A,,D,E, F, E,2 B,,/C,/ | D,2 D,E,- E,C, G,,2 |] %6

